z-union/img/icons/arrow-down-blog-2.svg

<svg width="8" height="13" viewBox="0 0 8 13" fill="none" xmlns="http://www.w3.org/2000/svg">
<path d="M3.75973 12.1295C3.95499 12.3248 4.27157 12.3248 4.46684 12.1295L7.64882 8.94756C7.84408 8.7523 7.84408 8.43572 7.64882 8.24045C7.45355 8.04519 7.13697 8.04519 6.94171 8.24045L4.11328 11.0689L1.28485 8.24045C1.08959 8.04519 0.77301 8.04519 0.577748 8.24045C0.382486 8.43572 0.382486 8.7523 0.577748 8.94756L3.75973 12.1295ZM3.61328 0.898438L3.61328 11.776L4.61328 11.776L4.61328 0.898437L3.61328 0.898438Z" fill="#C0C0C0"/>
</svg>

<svg width="8" height="13" fill="none" xmlns="http://www.w3.org/2000/svg"><path d="M3.76 12.13a.5.5 0 00.707 0l3.182-3.182a.5.5 0 00-.707-.708l-2.829 2.83-2.828-2.83a.5.5 0 10-.707.708l3.182 3.181zM3.613.898v10.878h1V.898h-1z" fill="silver"/></svg>
